Systematic/src/svg/close.svg

<svg xmlns="http://www.w3.org/2000/svg" xml:space="preserve" width="117.325" height="117.333"><defs><clipPath id="a" clipPathUnits="userSpaceOnUse"><path d="M0 256h256V0H0Z"/></clipPath><clipPath id="b" clipPathUnits="userSpaceOnUse"><path d="M84.006 172H172V84H84.006Z"/></clipPath></defs><g clip-path="url(#a)" transform="matrix(1.33333 0 0 -1.33333 -112.008 229.333)"><g clip-path="url(#b)" style="opacity:.5"><path d="M0 0a11.92 11.92 0 0 1-8.485-3.515L-32-27.03-55.515-3.515A11.92 11.92 0 0 1-64 0a11.92 11.92 0 0 1-8.485-3.515c-4.678-4.679-4.679-12.291 0-16.97L-48.97-44l-23.515-23.515c-4.678-4.679-4.678-12.291 0-16.97A11.92 11.92 0 0 1-64-88a11.92 11.92 0 0 1 8.485 3.515L-32-60.97l23.515-23.515A11.92 11.92 0 0 1 0-88a11.92 11.92 0 0 1 8.485 3.515A11.92 11.92 0 0 1 12-76a11.92 11.92 0 0 1-3.515 8.485L-15.03-44 8.485-20.485A11.92 11.92 0 0 1 12-12a11.92 11.92 0 0 1-3.515 8.485A11.92 11.92 0 0 1 0 0" style="fill:#fff;fill-opacity:1;fill-rule:nonzero;stroke:none" transform="translate(160 172)"/></g><path d="m0 0 29.172 29.172a4 4 0 1 1-5.656 5.656L-5.656 5.656l-29.172 29.172a3.997 3.997 0 0 1-5.656 0 3.997 3.997 0 0 1 0-5.656L-11.313 0l-29.171-29.172a3.997 3.997 0 0 1 0-5.656A4 4 0 0 1-37.656-36c1.023 0 2.047.391 2.828 1.172L-5.656-5.656l29.172-29.172A4 4 0 0 1 26.344-36a4 4 0 0 1 2.828 6.828z" style="fill:gray;fill-opacity:1;fill-rule:nonzero;stroke:none" transform="translate(133.656 128)"/></g></svg>

<?xml version="1.0" encoding="UTF-8" standalone="no"?>
<svg
   xmlns:dc="http://purl.org/dc/elements/1.1/"
   xmlns:cc="http://creativecommons.org/ns#"
   xmlns:rdf="http://www.w3.org/1999/02/22-rdf-syntax-ns#"
   xmlns:svg="http://www.w3.org/2000/svg"
   xmlns="http://www.w3.org/2000/svg"
   viewBox="0 0 117.32516 117.33333"
   height="117.33333"
   width="117.32516"
   xml:space="preserve"
   id="svg2"
   version="1.1"><metadata
     id="metadata8"><rdf:RDF><cc:Work
         rdf:about=""><dc:format>image/svg+xml</dc:format><dc:type
           rdf:resource="http://purl.org/dc/dcmitype/StillImage" /></cc:Work></rdf:RDF></metadata><defs
     id="defs6"><clipPath
       id="clipPath18"
       clipPathUnits="userSpaceOnUse"><path
         id="path16"
         d="M 0,256 H 256 V 0 H 0 Z" /></clipPath><clipPath
       id="clipPath26"
       clipPathUnits="userSpaceOnUse"><path
         id="path24"
         d="M 84.0061,172 H 172 V 84 H 84.0061 Z" /></clipPath></defs><g
     transform="matrix(1.3333333,0,0,-1.3333333,-112.00816,229.33333)"
     id="g10"><g
       id="g12"><g
         clip-path="url(#clipPath18)"
         id="g14"><g
           id="g20"><g
             id="g22" /><g
             id="g34"><g
               style="opacity:0.5"
               id="g32"
               clip-path="url(#clipPath26)"><g
                 id="g30"
                 transform="translate(160,172)"><path
                   id="path28"
                   style="fill:#ffffff;fill-opacity:1;fill-rule:nonzero;stroke:none"
                   d="M 0,0 C -3.205,0 -6.218,-1.248 -8.485,-3.515 L -32,-27.03 -55.515,-3.515 C -57.782,-1.248 -60.795,0 -64,0 c -3.205,0 -6.218,-1.248 -8.485,-3.515 -4.678,-4.679 -4.679,-12.291 0,-16.97 L -48.97,-44 -72.485,-67.515 c -4.678,-4.679 -4.678,-12.291 0,-16.97 2.267,-2.267 5.28,-3.515 8.485,-3.515 3.205,0 6.218,1.248 8.485,3.515 L -32,-60.97 -8.485,-84.485 C -6.218,-86.752 -3.205,-88 0,-88 c 3.205,0 6.218,1.248 8.485,3.515 2.267,2.267 3.515,5.28 3.515,8.485 0,3.205 -1.248,6.218 -3.515,8.485 L -15.03,-44 8.485,-20.485 C 10.752,-18.218 12,-15.205 12,-12 12,-8.795 10.752,-5.782 8.485,-3.515 6.218,-1.248 3.205,0 0,0" /></g></g></g></g><g
           transform="translate(133.6563,128)"
           id="g36"><path
             id="path38"
             style="fill:#808080;fill-opacity:1;fill-rule:nonzero;stroke:none"
             d="m 0,0 29.172,29.172 c 1.562,1.562 1.562,4.094 0,5.656 -1.563,1.563 -4.094,1.563 -5.656,0 L -5.656,5.656 -34.828,34.828 c -1.563,1.563 -4.094,1.563 -5.656,0 -1.563,-1.562 -1.563,-4.094 0,-5.656 L -11.313,0 -40.484,-29.172 c -1.563,-1.562 -1.563,-4.094 0,-5.656 0.781,-0.781 1.804,-1.172 2.828,-1.172 1.023,0 2.047,0.391 2.828,1.172 L -5.656,-5.656 23.516,-34.828 C 24.297,-35.609 25.32,-36 26.344,-36 c 1.023,0 2.047,0.391 2.828,1.172 1.562,1.562 1.562,4.094 0,5.656 z" /></g></g></g></g></svg>
